Newaita/actions/32/media-eject.svg

<svg height="32" viewBox="0 0 32 32" width="32" xmlns="http://www.w3.org/2000/svg"><g fill="#424242"><path d="m3.976562 26.71875c0 .730469.59375 1.320312 1.324219 1.320312h21.167969c.730469 0 1.320312-.589843 1.320312-1.320312s-.589843-1.324219-1.320312-1.324219h-21.167969c-.730469 0-1.324219.59375-1.324219 1.324219zm0 0"/><path d="m3.984375 21.421875c.007813.71875.59375 1.300781 1.316406 1.300781h21.167969c1.050781 0 1.679688-1.171875 1.09375-2.046875l-10.582031-15.878906c-.523438-.78125-1.671875-.78125-2.191407 0l-10.585937 15.878906c-.148437.21875-.222656.480469-.21875.746094zm0 0"/></g></svg>

<?xml version="1.0" encoding="UTF-8"?>
<svg xmlns="http://www.w3.org/2000/svg" xmlns:xlink="http://www.w3.org/1999/xlink" width="32px" height="32px" viewBox="0 0 32 32" version="1.1">
<g id="surface1">
<path style=" stroke:none;fill-rule:nonzero;fill:rgb(25.882354%,25.882354%,25.882354%);fill-opacity:1;" d="M 3.976562 26.71875 C 3.976562 27.449219 4.570312 28.039062 5.300781 28.039062 L 26.46875 28.039062 C 27.199219 28.039062 27.789062 27.449219 27.789062 26.71875 C 27.789062 25.988281 27.199219 25.394531 26.46875 25.394531 L 5.300781 25.394531 C 4.570312 25.394531 3.976562 25.988281 3.976562 26.71875 Z M 3.976562 26.71875 "/>
<path style=" stroke:none;fill-rule:nonzero;fill:rgb(25.882354%,25.882354%,25.882354%);fill-opacity:1;" d="M 3.984375 21.421875 C 3.992188 22.140625 4.578125 22.722656 5.300781 22.722656 L 26.46875 22.722656 C 27.519531 22.722656 28.148438 21.550781 27.5625 20.675781 L 16.980469 4.796875 C 16.457031 4.015625 15.308594 4.015625 14.789062 4.796875 L 4.203125 20.675781 C 4.054688 20.894531 3.980469 21.15625 3.984375 21.421875 Z M 3.984375 21.421875 "/>
</g>
</svg>
